X: 392
T: Back of the Change House
R: reel
M: C
L: 1/8
Z: 2012 John Chambers <jc:trillian.mit.edu>
B: J. Anderson "Budget of Strathspeys, Reels and Country Dances" (Early 1800s) p.39 #2
F: http://imslp.org/wiki/Anderson%27s_Budget_of_Strathspeys,_Reels_and_Country_Dances_(Various)
N: The 2nd part has a final repeat symbol but no initial repeat.  Fixed.
K: D
   B | AFAf edBd | AFAB dedB | AFAf edBg | (f/g/)a (AB) d2d :|
|: g | fedf edBg | fefg abaf | gafg edBg | faAB d2d :|

%%sep 2 1 500
%%sep 1 1 500

